packages/starksheet-webapp/src/components/Footer/starknet.svg

<svg width="16" height="16" viewBox="0 0 48 48" fill="none" xmlns="http://www.w3.org/2000/svg">
<path fill-rule="evenodd" clip-rule="evenodd" d="M47.2158 24C47.2158 37.198 36.6465 47.8968 23.6083 47.8968C10.57 47.8968 0 37.198 0 24C0 10.802 10.57 0.103149 23.6083 0.103149C36.6465 0.103149 47.2158 10.802 47.2158 24Z" fill="#29296E"/>
<path fill-rule="evenodd" clip-rule="evenodd" d="M34.5937 17.6109L33.9934 15.7335C33.8714 15.3517 33.5737 15.0545 33.1951 14.9374L31.3314 14.3572C31.0734 14.2775 31.0713 13.9091 31.3272 13.8251L33.1825 13.2174C33.559 13.0939 33.8526 12.7925 33.969 12.4093L34.5414 10.5228C34.6202 10.2623 34.9842 10.2595 35.0672 10.5192L35.6675 12.3966C35.7895 12.7777 36.0872 13.0748 36.4658 13.1927L38.3295 13.7721C38.5875 13.8526 38.5903 14.2203 38.3337 14.3043L36.4784 14.912C36.1019 15.0355 35.8083 15.3376 35.6919 15.7208L35.1195 17.6066C35.0407 17.8678 34.6767 17.8706 34.5937 17.6109Z" fill="#FAFAFA"/>
<path fill-rule="evenodd" clip-rule="evenodd" d="M2.14661 23.6216C2.70788 22.5086 3.81787 21.6701 4.97109 21.1401C6.13617 20.6157 7.41698 20.2938 8.67479 20.1894C11.2141 19.9572 13.6879 20.387 15.9413 21.1302C17.1022 21.4803 18.1411 21.9665 19.2141 22.4577C19.7357 22.7118 20.2258 22.9998 20.7306 23.2779L22.1251 24.0959C23.6562 25.0458 25.1406 25.8871 26.5351 26.5407C27.933 27.1886 29.1964 27.6268 30.3873 27.8506C31.5782 28.0771 32.7885 28.0743 34.2771 27.7285C35.7539 27.3904 37.4154 26.6613 39.1522 25.7262C40.8994 24.7903 42.6913 23.6427 44.7356 22.5213C44.5306 24.8651 43.8752 27.0629 42.8517 29.1852C41.8031 31.2821 40.3444 33.3274 38.2179 34.9838C36.1318 36.6537 33.2668 37.8175 30.3503 37.9926C27.4324 38.1923 24.6567 37.5416 22.2952 36.5627C19.9246 35.5696 17.8762 34.2647 16.0606 32.8242C15.5593 32.4261 15.2901 32.2003 14.9199 31.8834L13.8859 30.9666C13.1894 30.4147 12.5144 29.7548 11.8249 29.2078C10.4492 28.044 9.08825 26.878 7.59617 25.8673C6.84386 25.3535 6.06784 24.8771 5.18793 24.4551C4.75077 24.2511 4.28641 24.0613 3.78789 23.9116C3.27752 23.743 2.75878 23.6427 2.14661 23.6216Z" fill="#FF4F0A"/>
<path fill-rule="evenodd" clip-rule="evenodd" d="M2.14661 23.6218C2.43317 21.2101 3.54386 18.9481 5.32389 17.0228C7.09486 15.1158 9.86148 13.6456 12.9314 13.4508C14.4465 13.3485 15.9846 13.5193 17.3986 13.9159C18.8063 14.3112 20.1254 14.8871 21.3142 15.5653C21.9082 15.9062 22.4639 16.2789 23.0175 16.655L24.4929 17.7857L26.7958 19.6249C28.2907 20.8297 29.7172 21.9441 31.0357 22.8645C32.3667 23.7862 33.5004 24.4595 34.5832 24.854C35.6563 25.2846 37.0117 25.3947 38.8036 24.9387C39.6932 24.7312 40.6212 24.3522 41.6113 23.9415C42.5958 23.5208 43.6179 23.019 44.7356 22.5214C44.601 23.734 44.3577 24.9415 43.8954 26.0701C43.4513 27.2141 42.8663 28.3335 42.0485 29.3773C41.6301 29.8855 41.1818 30.3965 40.6589 30.8679C40.136 31.3281 39.5566 31.765 38.9165 32.1482C37.6399 32.897 36.1255 33.444 34.5721 33.6388C33.0186 33.8364 31.4589 33.7376 30.0387 33.4327C28.6107 33.1363 27.3097 32.6585 26.1153 32.1066C23.735 30.9858 21.7437 29.5771 19.9832 28.0858C19.0991 27.3412 18.2701 26.5634 17.485 25.7737L16.5577 24.8314C16.2781 24.5583 15.9957 24.2838 15.7161 24.0325C14.5894 23.024 13.5436 22.2533 12.3917 21.7726C11.2483 21.2694 9.78478 21.0626 7.98941 21.4028C6.20101 21.7394 4.239 22.5222 2.14661 23.6218Z" fill="#FAFAFA"/>
<path fill-rule="evenodd" clip-rule="evenodd" d="M11.5813 36.0577C11.5813 36.7712 11.0095 37.3499 10.3046 37.3499C9.59972 37.3499 9.02869 36.7712 9.02869 36.0577C9.02869 35.3441 9.59972 34.7654 10.3046 34.7654C11.0095 34.7654 11.5813 35.3441 11.5813 36.0577Z" fill="#FAFAFA"/>
</svg>

<svg xmlns="http://www.w3.org/2000/svg" width="16" height="16" fill="none" viewBox="0 0 48 48"><path fill="#29296E" fill-rule="evenodd" d="M47.216 24c0 13.198-10.57 23.897-23.608 23.897S0 37.198 0 24C0 10.802 10.57.103 23.608.103 36.647.103 47.216 10.802 47.216 24Z" clip-rule="evenodd"/><path fill="#FAFAFA" fill-rule="evenodd" d="m34.594 17.61-.6-1.877a1.218 1.218 0 0 0-.799-.796l-1.864-.58c-.258-.08-.26-.448-.004-.532l1.855-.608c.377-.123.67-.425.787-.808l.572-1.886a.275.275 0 0 1 .526-.004l.6 1.878c.122.38.42.678.799.796l1.864.58c.258.08.26.447.004.531l-1.856.608c-.376.123-.67.426-.786.809l-.572 1.886a.275.275 0 0 1-.526.004Z" clip-rule="evenodd"/><path fill="#FF4F0A" fill-rule="evenodd" d="M2.147 23.622c.56-1.113 1.67-1.952 2.824-2.482a11.418 11.418 0 0 1 3.704-.95c2.54-.233 5.013.197 7.266.94 1.161.35 2.2.837 3.273 1.328.522.254 1.012.542 1.517.82l1.394.818c1.531.95 3.016 1.791 4.41 2.445 1.398.648 2.661 1.086 3.852 1.31 1.191.226 2.401.223 3.89-.122 1.477-.339 3.138-1.068 4.875-2.003 1.747-.936 3.54-2.083 5.584-3.205-.205 2.344-.86 4.542-1.884 6.664-1.049 2.097-2.508 4.142-4.634 5.799-2.086 1.67-4.951 2.834-7.868 3.009-2.918.2-5.693-.451-8.055-1.43-2.37-.993-4.419-2.298-6.234-3.739-.502-.398-.77-.624-1.141-.94l-1.034-.917c-.697-.552-1.372-1.212-2.061-1.76-1.376-1.163-2.737-2.329-4.229-3.34a18.096 18.096 0 0 0-2.408-1.412 10.334 10.334 0 0 0-1.4-.543 5.706 5.706 0 0 0-1.641-.29Z" clip-rule="evenodd"/><path fill="#FAFAFA" fill-rule="evenodd" d="M2.147 23.622c.286-2.412 1.397-4.674 3.177-6.6 1.77-1.906 4.537-3.376 7.607-3.571a13.365 13.365 0 0 1 4.468.465 17.43 17.43 0 0 1 3.915 1.65c.594.34 1.15.713 1.703 1.089l1.476 1.13 2.303 1.84c1.495 1.205 2.921 2.32 4.24 3.24 1.33.921 2.464 1.595 3.547 1.989 1.073.43 2.429.54 4.22.085.89-.208 1.818-.587 2.808-.997.985-.421 2.007-.923 3.125-1.42-.135 1.212-.378 2.42-.84 3.548-.445 1.144-1.03 2.264-1.848 3.307a13.65 13.65 0 0 1-1.39 1.49 11.71 11.71 0 0 1-1.742 1.281 11.569 11.569 0 0 1-4.344 1.49 13.603 13.603 0 0 1-4.533-.205c-1.428-.297-2.73-.775-3.924-1.326-2.38-1.121-4.371-2.53-6.132-4.021a38.506 38.506 0 0 1-2.498-2.312l-.927-.943c-.28-.273-.562-.547-.842-.799-1.127-1.008-2.172-1.779-3.324-2.26-1.144-.503-2.607-.71-4.403-.37-1.788.337-3.75 1.12-5.842 2.22Zm9.434 12.436c0 .713-.572 1.292-1.276 1.292a1.284 1.284 0 0 1-1.276-1.292c0-.714.57-1.293 1.276-1.293.704 0 1.276.58 1.276 1.293Z" clip-rule="evenodd"/></svg>
